X:377
T:Crags of Tumbledown Mountain, The 
C:Joe Buchanan's Scottish Tome - Page 041.2
I:041 2
C:James Ross Riddell
R:March
Z:Carl Allison
L:1/8
M:2/4
K:G
"D7"d | "G"    G2  G>B d2    Bd        | "C"e<gg>e "G"   d4           | "G" G2    G>B       "Em"degB  | "Am"B3 c/B/2  "D7"A2- Ad           |
| "G"    G2  G>B d2    Bd        | "C"e<gg>e "G"   d2    G>A    | "G" B<ddg "Am"e<dcB           | "D7"A4 ("G"G2 G)                  :|
"D7"d | "G"    d2  B>d e<ggd           | "F"^f2    ec    "G"   d4     | "G" d2    B>d       "Em"e>ggB | "Am"B3 c/2B/2 ("D7"A2 A)d          |
| "G"    d2  B>d e>ggd           | "C"e>fge  "G"   d2    G>A    | "G" B<ddg "Am"e>dcB           | "D7"A4 ("G"G2 G)                  :|
"D7"d | "G"    G>B d2    "G"G>B d2 | "C"       G>GGe "G"d2 "D7"dg | "G" G>d   "Em"d2    "Em"G>BgB | "Am"   B3     c/2B/2  "D7"(A2 A)d  |
| "G"G>B d2  G>B d2              | "C"       e<fge "G"d2 "C"G>A | "G" B<ddg "Am"e>dcB           | "D7"A4 "G"(G2    G)                  :|

